svg/bullhorn_variant.svg

<svg xmlns="http://www.w3.org/2000/svg" viewBox="0 0 24 24"><path d="M20 2v2L4 8V6H2v12h2v-2l2 .5v2C6 20.4 7.6 22 9.5 22s3.5-1.6 3.5-3.5v-.2l7 1.7v2h2V2zm-9 16.5c0 .8-.7 1.5-1.5 1.5S8 19.3 8 18.5V17l3 .8z"/></svg>

<svg xmlns="http://www.w3.org/2000/svg" id="mdi-bullhorn-variant" viewBox="0 0 24 24"><path d="M20 2V4L4 8V6H2V18H4V16L6 16.5V18.5C6 20.4 7.6 22 9.5 22S13 20.4 13 18.5V18.3L20 20V22H22V2H20M11 18.5C11 19.3 10.3 20 9.5 20S8 19.3 8 18.5V17L11 17.8V18.5Z" /></svg>
